16x16/panel/skype-status-connecting-2.svg

<svg xmlns="http://www.w3.org/2000/svg" width="16" height="16" version="1">
 <defs>
  <style id="current-color-scheme" type="text/css">
   .ColorScheme-Text { color:#323a41; } .ColorScheme-Highlight { color:#4285f4; } .ColorScheme-NeutralText { color:#ff9800; } .ColorScheme-PositiveText { color:#4caf50; } .ColorScheme-NegativeText { color:#f44336; }
  </style>
 </defs>
 <path style="fill:currentColor" class="ColorScheme-Text" d="M 4.5 1 A 3.5 3.5 0 0 0 1 4.5 A 3.5 3.5 0 0 0 2.0859375 7.0292969 A 6 6 0 0 0 2 8 A 6 6 0 0 0 8 14 A 6 6 0 0 0 8.9707031 13.917969 A 3.5 3.5 0 0 0 11.5 15 A 3.5 3.5 0 0 0 15 11.5 A 3.5 3.5 0 0 0 13.914062 8.9707031 A 6 6 0 0 0 14 8 A 6 6 0 0 0 8 2 A 6 6 0 0 0 7.0292969 2.0820312 A 3.5 3.5 0 0 0 4.5 1 z M 8 4 A 1.0001 1.0001 0 1 1 8 6 C 6.8333333 6 6.5612545 6.3980885 6.2949219 7.0195312 C 6.1685959 7.3142919 6.0983122 7.6620023 6.0566406 8 L 7 8 L 5 11 L 3 8 L 4.0371094 8 C 4.0822924 7.4772124 4.1862141 6.8578181 4.4550781 6.2304688 C 4.9387455 5.1019114 6.1666667 4 8 4 z M 11.013672 5 L 13.013672 8 L 11.962891 8 C 11.920277 8.5259779 11.822723 9.1296326 11.552734 9.765625 C 11.073307 10.894979 9.8469933 12 8.0136719 12 A 1.0001 1.0001 0 1 1 8.0136719 10 C 9.1803484 10 9.4474854 9.6049709 9.7109375 8.984375 C 9.8364242 8.6887748 9.906766 8.3397392 9.9472656 8 L 9.0136719 8 L 11.013672 5 z"/>
 <path style="fill:currentColor" class="ColorScheme-Text" d="M -25.069,-9.0812"/>
</svg>

<svg xmlns="http://www.w3.org/2000/svg" width="16" height="16" version="1"><defs><style id="current-color-scheme" type="text/css">.ColorScheme-Text{color:#bebebe}</style></defs><path class="ColorScheme-Text" d="M4.5 1A3.5 3.5 0 0 0 1 4.5a3.5 3.5 0 0 0 1.086 2.53A6 6 0 0 0 2 8a6 6 0 0 0 6 6 6 6 0 0 0 .97-.082A3.5 3.5 0 0 0 11.5 15a3.5 3.5 0 0 0 3.5-3.5 3.5 3.5 0 0 0-1.086-2.53A6 6 0 0 0 14 8a6 6 0 0 0-6-6 6 6 0 0 0-.97.082A3.5 3.5 0 0 0 4.5 1zM8 4a1 1 0 1 1 0 2c-1.167 0-1.439.398-1.705 1.02-.126.294-.197.642-.238.98H7l-2 3-2-3h1.037c.045-.523.15-1.142.418-1.77C4.94 5.102 6.167 4 8 4zm3.014 1l2 3h-1.051a5.584 5.584 0 0 1-.41 1.766C11.073 10.895 9.847 12 8.013 12a1 1 0 1 1 0-2c1.167 0 1.434-.395 1.698-1.016.125-.295.196-.644.236-.984h-.933l2-3z" fill="currentColor"/></svg>
